swiss/communes/0588.svg

<?xml version="1.0" encoding="UTF-8" standalone="no"?>
<svg
   xmlns:dc="http://purl.org/dc/elements/1.1/"
   xmlns:cc="http://web.resource.org/cc/"
   xmlns:rdf="http://www.w3.org/1999/02/22-rdf-syntax-ns#"
   xmlns:svg="http://www.w3.org/2000/svg"
   xmlns="http://www.w3.org/2000/svg"
   xmlns:xlink="http://www.w3.org/1999/xlink"
   xmlns:sodipodi="http://sodipodi.sourceforge.net/DTD/sodipodi-0.dtd"
   xmlns:inkscape="http://www.inkscape.org/namespaces/inkscape"
   height="763"
   width="603"
   version="1.0"
   id="svg20"
   sodipodi:version="0.32"
   inkscape:version="0.45.1"
   sodipodi:docname="Niederried bei Interlaken-coat of arms.svg"
   sodipodi:docbase="C:\Users\Camilo\Documents\Escudos de Suiza"
   inkscape:output_extension="org.inkscape.output.svg.inkscape">
  <metadata
     id="metadata31">
    <rdf:RDF>
      <cc:Work
         rdf:about="">
        <dc:format>image/svg+xml</dc:format>
        <dc:type
           rdf:resource="http://purl.org/dc/dcmitype/StillImage" />
        <dc:date>07-AUG-2006</dc:date>
        <dc:creator>
          <cc:Agent>
            <dc:title>Jérôme BLUM (wagner51)</dc:title>
          </cc:Agent>
        </dc:creator>
        <cc:license
           rdf:resource="http://creativecommons.org/licenses/GPL/2.0/" />
        <dc:coverage />
        <dc:description>Gabarit pour le Projet:Blasons de WIkipédia</dc:description>
        <dc:subject>
          <rdf:Bag>
            <rdf:li>blason suisse modèle gabarit projet blasons</rdf:li>
          </rdf:Bag>
        </dc:subject>
        <dc:language>fr</dc:language>
        <dc:title>Gabrit d'un blason suisse</dc:title>
      </cc:Work>
      <cc:License
         rdf:about="http://creativecommons.org/licenses/GPL/2.0/">
        <cc:permits
           rdf:resource="http://web.resource.org/cc/Reproduction" />
        <cc:permits
           rdf:resource="http://web.resource.org/cc/Distribution" />
        <cc:requires
           rdf:resource="http://web.resource.org/cc/Notice" />
        <cc:permits
           rdf:resource="http://web.resource.org/cc/DerivativeWorks" />
        <cc:requires
           rdf:resource="http://web.resource.org/cc/ShareAlike" />
        <cc:requires
           rdf:resource="http://web.resource.org/cc/SourceCode" />
      </cc:License>
    </rdf:RDF>
  </metadata>
  <defs
     id="defs29">
    <linearGradient
       id="linearGradient2893">
      <stop
         style="stop-color:#ffffff;stop-opacity:0.3137255;"
         offset="0"
         id="stop2895" />
      <stop
         id="stop2897"
         offset="0.19"
         style="stop-color:#ffffff;stop-opacity:0.25098041;" />
      <stop
         style="stop-color:#6b6b6b;stop-opacity:0.1254902;"
         offset="0.60000002"
         id="stop2901" />
      <stop
         style="stop-color:#000000;stop-opacity:0.1254902;"
         offset="1"
         id="stop2899" />
    </linearGradient>
    <radialGradient
       inkscape:collect="always"
       xlink:href="#linearGradient2893"
       id="radialGradient3236"
       gradientUnits="userSpaceOnUse"
       gradientTransform="matrix(1.215027,1.531577e-24,1.464684e-23,1.266667,-839.1924,-490.4894)"
       cx="858.04236"
       cy="579.93323"
       fx="858.04236"
       fy="579.93323"
       r="300" />
  </defs>
  <sodipodi:namedview
     inkscape:window-height="750"
     inkscape:window-width="1280"
     inkscape:pageshadow="2"
     inkscape:pageopacity="0.0"
     guidetolerance="10.0"
     gridtolerance="10.0"
     objecttolerance="10.0"
     borderopacity="1.0"
     bordercolor="#666666"
     pagecolor="#ffffff"
     id="base"
     inkscape:zoom="0.67103539"
     inkscape:cx="301.5"
     inkscape:cy="381.5"
     inkscape:window-x="-8"
     inkscape:window-y="-8"
     inkscape:current-layer="layer2"
     showgrid="true"
     showguides="false" />
  <desc
     id="desc22">Coat of Arms of Canton of Freiburg (Fribourg)</desc>
  <g
     inkscape:groupmode="layer"
     id="layer1"
     inkscape:label="Fond écu"
     style="display:inline"
     sodipodi:insensitive="true">
    <path
       id="path1899"
       d="M 1.5,1.49998 L 1.5,460.3679 C 1.5,626.6785 135.81456,761.5 301.49999,761.5 C 467.18543,761.5 601.5,626.6785 601.5,460.3679 L 601.5,1.49998 L 1.5,1.49998 z "
       style="fill:#ffffff;fill-opacity:1" />
  </g>
  <g
     inkscape:groupmode="layer"
     id="layer2"
     inkscape:label="Meubles"
     style="display:inline"
     sodipodi:insensitive="true">
    <g
       style="display:inline"
       transform="matrix(4.2632212,0,0,4.2632212,-2658.4991,-2672.1713)"
       id="g10059">
      <path
         d="M 730.34362,636.09254 C 738.12769,628.89418 744.63881,637.62124 744.63881,637.62124 C 751.00069,635.55575 754.96998,640.81915 754.82819,646.28192 C 760.00343,645.55615 766.01253,657.82188 757.7665,661.43616 L 754.31277,679.90746 C 753.26657,685.61323 750.33215,689.11606 746.54627,691.62554 C 747.82563,696.48419 742.14947,702.57389 736.71808,701.62554 C 735.03941,710.13529 724.5801,710.90389 718.79735,707.31277 C 753.84428,689.23243 748.12596,662.46605 730.34362,636.09254 z "
         style="fill:#000000;fill-opacity:1;fill-rule:evenodd;stroke:#ffffff;stroke-width:1px;stroke-linecap:butt;stroke-linejoin:miter;stroke-opacity:1"
         id="path4235" />
      <path
         d="M 682.57712,685.40531 L 674.63554,677.75703 C 667.41039,671.28846 670.27277,670.14627 667.81324,666.29919 C 664.82631,661.62717 663.37053,663.98722 658.78514,658.24297 C 655.9558,654.69859 656.52811,651.10689 653.66365,647.63554 C 650.39353,643.67259 647.79419,643.12149 647.79419,643.12149 C 643.02365,643.22311 642.69192,647.03463 640.97189,650.18676 C 642.60389,646.93407 643.01518,643.2696 647.79419,643.12149 L 640.12149,628 C 639.04744,631.21033 638.4572,632.87116 638.1777,635.6727 L 644.39257,643.85041 L 638.1777,635.6727 L 634.02811,630.6727 C 633.47384,636.02449 631.32007,642.97579 634.02811,645.06527 L 640.97189,650.18676 L 642.93473,651.66365 L 639.75703,651.90662 L 639.63554,656.1777 C 645.87642,655.43318 648.24952,657.94172 650.48595,660.69176 C 655.57016,666.94359 652.9479,669.41979 655.36446,673.36446 C 659.02533,679.34028 660.91856,676.28802 663.90662,684.09337 C 666.15692,689.97157 668.62583,695.84302 672.04085,700.27519 L 682.57712,685.40531 z "
         style="fill:#000000;fill-opacity:1;fill-rule:evenodd;stroke:#ffffff;stroke-width:1px;stroke-linecap:butt;stroke-linejoin:miter;stroke-opacity:1"
         id="path3259" />
      <path
         d="M 727.57712,729.37446 C 723.72836,723.5506 719.8796,718.30917 716.03085,713.85904 C 715.89472,709.95301 716.67165,706.04699 713.96915,702.14096 C 720.96574,691.91722 726.86686,682.7695 726.37446,666.28192 C 719.18323,665.42617 715.55334,661.00907 714.31277,654.20265 C 715.64047,660.93796 719.14237,665.40849 726.37446,666.28192 C 730.66286,666.06723 733.87807,663.70616 737.2335,661.62554 C 729.72015,658.37347 717.83965,661.67212 716.6886,648.87661 C 717.84085,661.62473 729.74686,658.4508 737.2335,661.62554 L 724.51405,651.1777 C 723.88904,647.93659 723.12696,644.95403 720,643 C 723.10542,644.92553 723.96479,647.97409 724.51405,651.1777 C 762.23941,659.65739 753.18629,700.98833 734.65638,713.68723 C 742.89665,715.56251 750.62641,714.58163 752.81324,701.90662 C 757.02238,699.97936 759.87135,693.23884 758.66365,688.12149 C 762.46766,684.01239 762.54113,678.08099 759.87851,674.33635 C 763.40658,668.40104 760.70032,661.80043 755.48595,658.97189 C 755.45576,652.06715 751.91155,648.30654 745.72892,646.90662 C 744.73761,640.97954 740.01607,637.44376 733.54216,639.45784 C 726.58481,631.9822 719.82335,633.31584 715,638 C 708.67109,636.64867 699.51932,633.03881 695,638 C 688.37383,637.14959 674.01187,633.67242 674.39257,638.60743 C 672.50687,640.70456 670.99944,643.1043 672.30824,647.75703 C 683.62077,644.81544 690.68332,646.55972 689.39257,657.51405 L 672.30824,657.39257 C 673.61355,667.29116 685.80438,662.15735 693.1396,663.72892 C 694.44722,666.9417 696.91059,669.60616 700.48595,669.94378 C 705.29564,670.38288 709.85725,668.02395 712.18676,665.93473 C 709.87266,668.0137 705.29049,670.41598 700.48595,669.94378 C 685.81972,686.21688 674.98743,680.87756 670.60743,704.33635 L 679.75703,713.72892 L 689.51405,714.8223 L 679.75703,713.72892 L 670.60743,704.33635 C 668.96455,702.76434 667.53752,701.17346 666.68176,699.41974 C 665.87564,692.61169 662.44896,688.45549 657.33337,687.11302 C 654.18972,686.28804 651.02657,681.89869 650.0858,678.46139 C 648.05037,671.02459 645.67872,667.43942 641.57932,668 C 638.35041,669.6134 637.63832,673.12168 636.8223,676.64459 C 637.6279,673.08689 638.35092,669.64948 641.57932,668 L 632.81324,655.81324 C 631.98481,658.23516 631.39637,660.53708 631.21486,662.63554 L 638.66365,670.44878 L 631.21486,662.63554 L 628.36445,659.78513 C 628.24767,664.04075 625.08375,671.03877 628.05622,672.51405 L 636.8223,676.64459 L 637.81324,678.48594 L 634.7008,678.84117 L 634.6945,682.75346 C 639.60174,684.13122 641.49674,681.71347 643.28798,684.36993 C 643.28798,684.36993 645.75515,686.58325 648.54217,690.18676 C 650.70764,692.98663 650.81961,696.96305 653.15601,700.13083 C 655.24935,702.96905 658.85765,704.86481 660.36446,707.39257 C 665.44759,715.91979 666.88974,730.78758 678.54216,731.78514 L 690.48595,730.44878 L 678.54216,731.78514 L 692.59469,749.54627 C 703.03439,741.7369 713.14722,733.63699 727.57712,729.37446 z "
         style="fill:#000000;fill-opacity:1;fill-rule:evenodd;stroke:#ffffff;stroke-width:1px;stroke-linecap:butt;stroke-linejoin:miter;stroke-opacity:1"
         id="path2287" />
      <path
         d="M 690,653 C 680.70674,649.36733 667.28977,654.80684 664.14096,637.65638 C 658.93394,639.02585 652.91089,650.09761 665,653 C 675.38642,655.49361 690,653 690,653 z "
         style="fill:#e20909;fill-opacity:1;fill-rule:evenodd;stroke:#000000;stroke-width:1px;stroke-linecap:butt;stroke-linejoin:miter;stroke-opacity:1"
         id="path5206" />
      <path
         d="M 686.09338,662.51405 C 684.91331,666.26722 681.97313,667.13724 679.51405,667.51405 C 684.58073,669.92631 689.6509,668.05118 690.60743,662.51405 C 690.19229,665.12675 689.02087,668.19683 686.09338,669.84135 C 692.08669,669.85642 695.49872,667.2902 694.51406,662.75703 L 686.09338,662.51405 z "
         style="fill:#ffffff;fill-opacity:1;fill-rule:evenodd;stroke:#000000;stroke-width:1px;stroke-linecap:butt;stroke-linejoin:miter;stroke-opacity:1"
         id="path5208" />
      <path
         d="M 696,642 C 697.20116,641.22397 698.32906,641.17509 699.97189,641.51405 C 700.605,644.57011 702.36031,645.6062 704.60743,645.75703 C 703.55319,644.21185 703.07257,643.15261 703.60743,641.60743 C 706.53613,642.05223 709.09461,642.2656 711,645 C 707.06593,650.43496 698.47991,649.1757 696,642 z "
         style="fill:#ffffff;fill-opacity:1;fill-rule:evenodd;stroke:#000000;stroke-width:1px;stroke-linecap:butt;stroke-linejoin:miter;stroke-opacity:1"
         id="path6179" />
    </g>
    <path
       style="fill:#5ab532;fill-opacity:1;fill-rule:evenodd;stroke:#000000;stroke-width:4.04735088;stroke-miterlimit:4;stroke-dasharray:none;stroke-opacity:1;display:inline"
       d="M 9.59375,530.03125 C 39.61669,657.2605 150.02957,753.24488 284.03125,760.96875 L 318.96875,760.96875 C 452.97049,753.24488 563.38329,657.26051 593.40625,530.03125 L 9.59375,530.03125 z "
       id="rect8119" />
  </g>
  <g
     inkscape:groupmode="layer"
     id="layer3"
     inkscape:label="Reflet final"
     style="display:inline"
     sodipodi:insensitive="true">
    <path
       style="fill:url(#radialGradient3236);fill-opacity:1"
       d="M 1.5,1.5 L 1.5,460.3679 C 1.5,626.67854 135.81454,761.5 301.49993,761.5 C 467.1854,761.5 601.5,626.67854 601.5,460.3679 L 601.5,1.5 L 1.5,1.5 z "
       id="path2346" />
  </g>
  <g
     inkscape:groupmode="layer"
     id="layer4"
     inkscape:label="Contour final"
     style="display:inline"
     sodipodi:insensitive="true">
    <path
       style="fill:none;fill-opacity:1;stroke:#000000;stroke-width:3;stroke-miterlimit:4;stroke-dasharray:none;stroke-opacity:1"
       d="M 1.5,1.5 L 1.5,460.36794 C 1.5,626.67854 135.81454,761.5 301.49993,761.5 C 467.1854,761.5 601.5,626.67854 601.5,460.36794 L 601.5,1.5 L 1.5,1.5 z "
       id="path3239" />
  </g>
</svg>

<svg xmlns="http://www.w3.org/2000/svg" xmlns:xlink="http://www.w3.org/1999/xlink" height="763" width="603" version="1.0"><defs><radialGradient xlink:href="#a" id="b" gradientUnits="userSpaceOnUse" gradientTransform="matrix(1.21503 0 0 1.26667 -839.192 -490.49)" cx="858.042" cy="579.933" fx="858.042" fy="579.933" r="300"/><linearGradient id="a"><stop style="stop-color:#fff;stop-opacity:.3137255" offset="0"/><stop offset=".19" style="stop-color:#fff;stop-opacity:.25098041"/><stop style="stop-color:#6b6b6b;stop-opacity:.1254902" offset=".6"/><stop style="stop-color:#000;stop-opacity:.1254902" offset="1"/></linearGradient></defs><g style="display:inline"><path d="M1.5 1.5v458.868c0 166.31 134.315 301.132 300 301.132s300-134.822 300-301.132V1.5H1.5z" style="fill:#fff;fill-opacity:1"/></g><g style="display:inline"><g style="display:inline"><path d="M730.344 636.093c7.784-7.199 14.295 1.528 14.295 1.528 6.362-2.065 10.331 3.198 10.19 8.66 5.174-.725 11.184 11.54 2.938 15.155l-3.454 18.471c-1.046 5.706-3.98 9.21-7.767 11.719 1.28 4.858-4.397 10.948-9.828 10-1.679 8.51-12.138 9.278-17.92 5.687 35.046-18.08 29.328-44.847 11.546-71.22zM682.577 685.405l-7.941-7.648c-7.226-6.469-4.363-7.61-6.823-11.458-2.987-4.672-4.442-2.312-9.028-8.056-2.83-3.544-2.257-7.136-5.121-10.607-3.27-3.963-5.87-4.515-5.87-4.515-4.77.102-5.102 3.914-6.822 7.066 1.632-3.253 2.043-6.917 6.822-7.066L640.121 628c-1.074 3.21-1.664 4.871-1.943 7.673l6.215 8.177-6.215-8.177-4.15-5c-.554 5.351-2.708 12.303 0 14.392l6.944 5.122 1.963 1.477-3.178.243-.121 4.27c6.24-.744 8.614 1.765 10.85 4.515 5.084 6.252 2.462 8.728 4.878 12.672 3.661 5.976 5.555 2.924 8.543 10.73 2.25 5.878 4.719 11.749 8.134 16.181l10.536-14.87z" style="fill:#000;fill-opacity:1;fill-rule:evenodd;stroke:#fff;stroke-width:1px;stroke-linecap:butt;stroke-linejoin:miter;stroke-opacity:1" transform="translate(-2658.5 -2672.171) scale(4.26322)"/><path d="M727.577 729.374c-3.849-5.823-7.697-11.065-11.546-15.515-.136-3.906.64-7.812-2.062-11.718 6.997-10.224 12.898-19.371 12.405-35.86-7.19-.855-10.82-5.272-12.061-12.078 1.327 6.735 4.83 11.205 12.061 12.079 4.289-.215 7.504-2.576 10.86-4.656-7.514-3.253-19.394.046-20.545-12.75 1.152 12.749 13.058 9.575 20.545 12.75l-12.72-10.448c-.625-3.241-1.387-6.224-4.514-8.178 3.105 1.926 3.965 4.974 4.514 8.178 37.725 8.48 28.672 49.81 10.142 62.51 8.24 1.875 15.97.894 18.157-11.781 4.21-1.928 7.058-8.668 5.85-13.786 3.805-4.109 3.878-10.04 1.216-13.785 3.528-5.935.821-12.536-4.393-15.364-.03-6.905-3.574-10.665-9.757-12.065-.991-5.927-5.713-9.463-12.187-7.45-6.957-7.475-13.719-6.141-18.542-1.457-6.329-1.351-15.48-4.961-20 0-6.626-.85-20.988-4.328-20.607.607-1.886 2.098-3.394 4.497-2.085 9.15 11.313-2.942 18.375-1.197 17.085 9.757l-17.085-.121c1.306 9.898 13.496 4.764 20.832 6.336 1.307 3.213 3.77 5.877 7.346 6.215 4.81.439 9.371-1.92 11.7-4.01-2.313 2.08-6.896 4.482-11.7 4.01-14.666 16.273-25.499 10.934-29.879 34.392l9.15 9.393 9.757 1.093-9.757-1.093-9.15-9.393c-1.642-1.572-3.07-3.163-3.925-4.916-.806-6.808-4.233-10.965-9.349-12.307-3.143-.825-6.306-5.214-7.247-8.652-2.036-7.436-4.407-11.022-8.507-10.461-3.229 1.613-3.94 5.122-4.757 8.645.806-3.558 1.529-6.996 4.757-8.645l-8.766-12.187c-.828 2.422-1.417 4.724-1.598 6.823l7.449 7.813-7.45-7.813-2.85-2.85c-.116 4.255-3.28 11.253-.308 12.728l8.766 4.13.991 1.842-3.112.355-.007 3.912c4.908 1.378 6.803-1.04 8.594 1.617 0 0 2.467 2.213 5.254 5.817 2.166 2.8 2.278 6.776 4.614 9.944 2.093 2.838 5.702 4.734 7.208 7.262 5.084 8.527 6.526 23.395 18.178 24.392l11.944-1.336-11.944 1.336 14.053 17.761c10.44-7.81 20.552-15.909 34.982-20.172z" style="fill:#000;fill-opacity:1;fill-rule:evenodd;stroke:#fff;stroke-width:1px;stroke-linecap:butt;stroke-linejoin:miter;stroke-opacity:1" transform="translate(-2658.5 -2672.171) scale(4.26322)"/><path d="M690 653c-9.293-3.633-22.71 1.807-25.859-15.344-5.207 1.37-11.23 12.442.859 15.344 10.386 2.494 25 0 25 0z" style="fill:#e20909;fill-opacity:1;fill-rule:evenodd;stroke:#000;stroke-width:1px;stroke-linecap:butt;stroke-linejoin:miter;stroke-opacity:1" transform="translate(-2658.5 -2672.171) scale(4.26322)"/><path d="M686.093 662.514c-1.18 3.753-4.12 4.623-6.579 5 5.067 2.412 10.137.537 11.093-5-.415 2.613-1.586 5.683-4.514 7.327 5.994.015 9.406-2.55 8.421-7.084l-8.42-.243zM696 642c1.201-.776 2.33-.825 3.972-.486.633 3.056 2.388 4.092 4.635 4.243-1.054-1.545-1.534-2.604-1-4.15 2.93.445 5.488.659 7.393 3.393-3.934 5.435-12.52 4.176-15-3z" style="fill:#fff;fill-opacity:1;fill-rule:evenodd;stroke:#000;stroke-width:1px;stroke-linecap:butt;stroke-linejoin:miter;stroke-opacity:1" transform="translate(-2658.5 -2672.171) scale(4.26322)"/></g><path style="fill:#5ab532;fill-opacity:1;fill-rule:evenodd;stroke:#000;stroke-width:4.04735088;stroke-miterlimit:4;stroke-dasharray:none;stroke-opacity:1;display:inline" d="M9.594 530.031C39.617 657.261 150.03 753.245 284.03 760.97h34.938C452.97 753.245 563.383 657.26 593.406 530.03H9.594z"/></g><g style="display:inline"><path style="fill:url(#b);fill-opacity:1" d="M1.5 1.5v458.868c0 166.31 134.315 301.132 300 301.132s300-134.821 300-301.132V1.5H1.5z"/></g><g style="display:inline"><path style="fill:none;fill-opacity:1;stroke:#000;stroke-width:3;stroke-miterlimit:4;stroke-dasharray:none;stroke-opacity:1" d="M1.5 1.5v458.868c0 166.31 134.315 301.132 300 301.132s300-134.821 300-301.132V1.5H1.5z"/></g></svg>
